X:44
T: Graf und Nonne (Die Nonne)
N: Q0155q
O: Osteuropa, Ungarn, Tata, Tarjan
R: Ballade, Standesunterschied, vergebliche Werbung, Liebe, Klage, Tod
M: 2/4
L: 1/16
K: F
C2 | F2F2E2D2 | D2F2C2
C2 | F2F2G2G2 | A4z2
C2 | A3AA2c2 | c4B2
A2 | G3FE2D2 | C2B2A2
G2 | c2B2B2B2 | A4z2

@@@ Tune index: 1754
